X:1
T:Title
%%score 1 { 2 | 3 }
L:1/8
Q:1/4=100
M:4/4
K:E
V:1 treble nm="Grand Piano, Soprano"
V:2 bass nm="Choir Pad, Who Shall Be Able to Stand?"
V:3 bass 
V:1
 E>[EF] [EG]2 [GB]>[Ac] [GB]2 | [EG]>[DF] EE- E/ z/ [DF] [EG]2 | [GB]2 [Ac][GB]- [GB][Ac] [GB]2 | %3
w: By~G.~W.~Brown * * * * *|||
 [EG]2 [DF]6 | E>[EF] [EG]2 [GB]>[Ac] [GB]2 | [EG]>[DF] EE- E/ z/ [DF] [EG]2 | %6
w: |||
 [GB]2 [Ac][GB]- [GB]E [EG]2 | [DF]2 E6 | [EB]2 [Ge]2- [Ge][Ge] [Ge]2 | %9
w: |||
 [EB]>[Ec] [Ge][Ge]- [Ge][Ec] [EB]2 | [EG]2 [Ec]2- [Ec][Ec] [EB]2 | [EG]2 [EG]2 E2 [DF]2 | %12
w: |||
 E>[EF] [EG]2 [EB]>[Ec] [EB]2 | [EG]>[DF] EE- E/ z/ [DF] [EG]2 | [EB]2 [Ec][EB]- [EB]E[EG][EG] | %15
w: |||
 [DF]2 E6- | E2 z2 z4 |] %17
w: ||
V:2
 G,>B, B,2 E>E E2 | B,>A, G,G,- G,B, B,2 | E2 EE- EE E2 | B,2 B,6 | G,>A, B,2[K:treble] E>E E2 | %5
 B,>A,[K:bass] G,G,- G,B, B,2 | E2 EE- EG,[K:bass] B,2 | A,2 G,6 | G,2 B,2- B,B, B,2 | %9
 G,>A, B,B,- B,A, G,2 | B,2 A,2- A,A, G,2 | B,2 B,2 ^A,2 B,2 | G,>^A, B,2 G,>=A, G,2 | %13
 B,>A, G,G,- G,B, B,2 | G,2 A,G,- G,B,B,B, | A,2 G,6- | G,2 z2 z4 |] %17
V:3
 E,>E, E,2 E,>E, E,2 | E,>B,, C,C,- C,B,, E,2 | E,2 E,E,- E,E, E,2 | E,2 B,,6 | %4
 E,>E, E,2 E,>E, E,2 | E,>B,, C,C,- C,B,, E,2 | E,2 E,E,- E,E, B,,2 | B,,2 E,6 | %8
 E,2 E,2- E,E, E,2 | E,>E, E,E,- E,E, E,2 | E,2 A,,2- A,,A,, E,2 | E,2 E,2 C,2 B,,2 | %12
 E,>E, E,2 E,>E, E,2 | E,>B,, C,C,- C,B,, E,2 | E,2 E,E,- E,G,,B,,B,, | B,,2 E,6- | E,2 z2 z4 |] %17

